**harmony	**harte	**kern	**silbe	**kern	**silbe	**rhyme	**timestamp	**phrase
*M4/4	*M4/4	*ICvox	*	*ICvox	*	*	*	*
*	*	*VRlead	*	*VRharmonize	*	*	*	*
*	*	*Hstimme	*	*Nstimme	*	*	*	*
*G:	*G:	*G:	*	*G:	*	*	*	*
*	*	*M4/4	*	*M4/4	*	*	*	*
*	*	*clefG2	*	*clefG2	*	*	*	*
1r;	1r	r;	.	r;	.	.	0	.
=1	=1	=1	=1	=1	=1	=1	=1	=1
*>Letter>A	*>Letter>A	*>Letter>A	*>Letter>A	*>Letter>A	*>Letter>A	*>Letter>A	*>Letter>A	*>Letter>A
*>Label>Intro	*>Label>Intro	*>Label>Intro	*>Label>Intro	*>Label>Intro	*>Label>Intro	*>Label>Intro	*>Label>Intro	*>Label>Intro
1GM	G:5	1r	.	1r	.	.	0.685	newline
=2	=2	=2	=2	=2	=2	=2	=2	=2
1GM	G:5	1r	.	1r	.	.	3.121	.
=3	=3	=3	=3	=3	=3	=3	=3	=3
1GM	G:5	1r	.	1r	.	.	5.557	.
=4	=4	=4	=4	=4	=4	=4	=4	=4
1GM	G:5	1r	.	1r	.	.	7.993	.
=5	=5	=5	=5	=5	=5	=5	=5	=5
*>Letter>B	*>Letter>B	*>Letter>B	*>Letter>B	*>Letter>B	*>Letter>B	*>Letter>B	*>Letter>B	*>Letter>B
*>Label>Verse	*>Label>Verse	*>Label>Verse	*>Label>Verse	*>Label>Verse	*>Label>Verse	*>Label>Verse	*>Label>Verse	*>Label>Verse
1GM	G:5	8d	Cold	1r	.	.	10.43	newline
.	.	8a	late	.	.	.	.	.
.	.	8.a	night	.	.	.	.	.
.	.	16d	so	.	.	.	.	.
.	.	8d	long	.	.	A	.	.
.	.	16g	a-	.	.	.	.	.
.	.	8.g	-go	.	.	B	.	.
.	.	16r	.	.	.	.	.	.
.	.	16c	when	.	.	.	.	.
=6	=6	=6	=6	=6	=6	=6	=6	=6
1GM	G:5	8d	I	1r	.	.	12.831	.
.	.	16f	was	.	.	.	.	.
.	.	8f	not	.	.	.	.	.
.	.	8.f	so	.	.	.	.	.
.	.	8.d	strong	.	.	A	.	.
.	.	16G	you	.	.	.	.	.
.	.	8G	know	.	.	B	.	.
.	.	8r	.	.	.	.	.	.
=7	=7	=7	=7	=7	=7	=7	=7	=7
1FM	F:maj	16c	Pre-	1r	.	.	15.232	.
.	.	16c	-tty	.	.	.	.	.
.	.	8c	man	.	.	.	.	.
.	.	8c	came	.	.	.	.	.
.	.	4d	to	.	.	C	.	.
.	.	8c	me	.	.	.	.	.
.	.	8r	.	.	.	.	.	.
.	.	16c	Ne-	.	.	.	.	.
.	.	16c	-ver	.	.	.	.	.
=8	=8	=8	=8	=8	=8	=8	=8	=8
1FM	F:maj	8a	seen	1r	.	.	17.634	.
.	.	8g	eyes	.	.	.	.	.
.	.	8f	so	.	.	.	.	.
.	.	[4c	blue	.	.	C	.	.
.	.	16c]	_	.	.	.	.	.
.	.	16c	You	.	.	.	.	.
.	.	16c	know	.	.	.	.	.
.	.	8.c	I	.	.	.	.	.
=9	=9	=9	=9	=9	=9	=9	=9	=9
1GM	G:5	8d	Could	1r	.	.	20.035	newline
.	.	8a	not	.	.	.	.	.
.	.	8a	run	.	.	.	.	.
.	.	16d	a-	.	.	.	.	.
.	.	8d	-way	.	.	.	.	.
.	.	16g	it	.	.	.	.	.
.	.	4g	seemed	.	.	D	.	.
.	.	16r	.	.	.	.	.	.
.	.	16c	We'd	.	.	.	.	.
=10	=10	=10	=10	=10	=10	=10	=10	=10
1GM	G:5	8d	seen	1r	.	.	22.435	.
.	.	8f	each-	.	.	.	.	.
.	.	16f	-o-	.	.	.	.	.
.	.	8d	-ther	.	.	.	.	.
.	.	16d	in	.	.	.	.	.
.	.	8G	a	.	.	.	.	.
.	.	8G	dream	.	.	D	.	.
.	.	4r	.	.	.	.	.	.
=11	=11	=11	=11	=11	=11	=11	=11	=11
1FM	F:maj	8c	Seemed	1r	.	.	24.834	.
.	.	8c	like	.	.	.	.	.
.	.	8c	he	.	.	.	.	.
.	.	4d	knew	.	.	C	.	.
.	.	8c	me	.	.	.	.	.
.	.	8r	.	.	.	.	.	.
.	.	8c	he	.	.	.	.	.
=12	=12	=12	=12	=12	=12	=12	=12	=12
1FM	F:maj	8a	looked	1r	.	.	27.234	.
.	.	8g	right	.	.	.	.	.
.	.	8r	.	.	.	.	.	.
.	.	4f	through	.	.	C	.	.
.	.	8g	me	.	.	.	.	.
.	.	4a	_	.	.	.	.	.
=13	=13	=13	=13	=13	=13	=13	=13	=13
*>Letter>A	*>Letter>A	*>Letter>A	*>Letter>A	*>Letter>A	*>Letter>A	*>Letter>A	*>Letter>A	*>Letter>A
*>Label>Trans	*>Label>Trans	*>Label>Trans	*>Label>Trans	*>Label>Trans	*>Label>Trans	*>Label>Trans	*>Label>Trans	*>Label>Trans
1GM	G:5	4r	.	1r	.	.	29.634	newline
.	.	16d	Yeah	.	.	.	.	.
.	.	8c#	_	.	.	.	.	.
.	.	8.d	_	.	.	.	.	.
.	.	8r	.	.	.	.	.	.
.	.	4r	.	.	.	.	.	.
=14	=14	=14	=14	=14	=14	=14	=14	=14
1GM	G:5	1r	.	1r	.	.	31.957	.
=15	=15	=15	=15	=15	=15	=15	=15	=15
*>Letter>C	*>Letter>C	*>Letter>C	*>Letter>C	*>Letter>C	*>Letter>C	*>Letter>C	*>Letter>C	*>Letter>C
*>Label>Chorus	*>Label>Chorus	*>Label>Chorus	*>Label>Chorus	*>Label>Chorus	*>Label>Chorus	*>Label>Chorus	*>Label>Chorus	*>Label>Chorus
2B-M	B-:maj	8cc	Come	1r	.	.	34.28	newline
.	.	8cc	on	.	.	.	.	.
.	.	8dd	_	.	.	.	.	.
.	.	4a	home	.	.	.	.	.
2FM	F:maj	.	.	.	.	.	35.47	.
.	.	16a	girl	.	.	.	.	.
.	.	16g	_	.	.	.	.	.
.	.	8f	_	.	.	.	.	.
.	.	8g	he	.	.	.	.	.
=16	=16	=16	=16	=16	=16	=16	=16	=16
1GM	G:5	8d	said	1r	.	.	36.66	.
.	.	16d	with	.	.	.	.	.
.	.	8.c	a	.	.	.	.	.
.	.	4.d	smile	.	.	E	.	.
.	.	4r	.	.	.	.	.	.
=17	=17	=17	=17	=17	=17	=17	=17	=17
2B-M	B-:maj	16cc	You	1r	.	.	39.04	.
.	.	8.cc	don't	.	.	.	.	.
.	.	8cc	have	.	.	.	.	.
.	.	16dd	to	.	.	.	.	.
.	.	8.a	love	.	.	.	.	.
2FM	F:maj	.	.	.	.	.	40.231	.
.	.	8g	me	.	.	.	.	.
.	.	8f	yet	.	.	.	.	.
.	.	[8g	let's	.	.	.	.	.
=18	=18	=18	=18	=18	=18	=18	=18	=18
1GM	G:5	16g]	_	1r	.	.	41.421	.
.	.	16c	get	.	.	.	.	.
.	.	16d	high	.	.	.	.	.
.	.	8.c	a	.	.	.	.	.
.	.	16d	while	.	.	E	.	.
.	.	8.f	_	.	.	.	.	.
.	.	8r	.	.	.	.	.	.
.	.	8r	.	.	.	.	.	.
.	.	8c	But	.	.	.	.	.
=19	=19	=19	=19	=19	=19	=19	=19	=19
1FM	F:maj	16cc	try	1r	.	.	43.801	newline
.	.	8b-	to	.	.	.	.	.
.	.	16a	un-	.	.	.	.	.
.	.	8g	-der-	.	.	.	.	.
.	.	16a	-stand	.	.	.	.	.
.	.	16g	_	.	.	.	.	.
.	.	4f	_	.	.	.	.	.
.	.	8r	.	.	.	.	.	.
.	.	[8dd	try	.	.	.	.	.
=20	=20	=20	=20	=20	=20	=20	=20	=20
1GM	G:maj	8dd]	_	1r	.	.	46.158	.
.	.	16cc	to	.	.	.	.	.
.	.	16b	un-	.	.	.	.	.
.	.	8a	-der-	.	.	.	.	.
.	.	16b	-stand	.	.	.	.	.
.	.	16a	_	.	.	.	.	.
.	.	4.g	_	.	.	.	.	.
.	.	8r	.	.	.	.	.	.
=21	=21	=21	=21	=21	=21	=21	=21	=21
1B-M	B-:maj	4cc	Try	1r	.	.	48.515	.
.	.	16cc	try	.	.	.	.	.
.	.	8.dd	_	.	.	.	.	.
.	.	32a	try	.	.	.	.	.
.	.	32g	_	.	.	.	.	.
.	.	8f	_	.	.	.	.	.
.	.	16f	to	.	.	.	.	.
.	.	8g	un-	.	.	.	.	.
.	.	8g	-der-	.	.	.	.	.
=22	=22	=22	=22	=22	=22	=22	=22	=22
1CM	C:maj	2g	-stand	1r	.	F	50.872	.
.	.	8r	.	.	.	.	.	.
.	.	16c	I'm	.	.	.	.	.
.	.	16c	a	.	.	.	.	.
.	.	8d	ma-	.	.	.	.	.
.	.	8c	-gic	.	.	.	.	.
=23	=23	=23	=23	=23	=23	=23	=23	=23
*>Letter>A	*>Letter>A	*>Letter>A	*>Letter>A	*>Letter>A	*>Letter>A	*>Letter>A	*>Letter>A	*>Letter>A
*>Label>Trans	*>Label>Trans	*>Label>Trans	*>Label>Trans	*>Label>Trans	*>Label>Trans	*>Label>Trans	*>Label>Trans	*>Label>Trans
1GM	G:5	4B-	man	1r	.	F	53.229	newline
.	.	4r	.	.	.	.	.	.
.	.	2r	.	.	.	.	.	.
=24	=24	=24	=24	=24	=24	=24	=24	=24
1GM	G:5	1r	.	1r	.	.	55.618	.
=25	=25	=25	=25	=25	=25	=25	=25	=25
*>Letter>B	*>Letter>B	*>Letter>B	*>Letter>B	*>Letter>B	*>Letter>B	*>Letter>B	*>Letter>B	*>Letter>B
*>Label>Verse	*>Label>Verse	*>Label>Verse	*>Label>Verse	*>Label>Verse	*>Label>Verse	*>Label>Verse	*>Label>Verse	*>Label>Verse
1GM	G:5	8d	Win-	1r	.	.	58.007	newline
.	.	8a	-ter	.	.	.	.	.
.	.	8.a	nights	.	.	.	.	.
.	.	16d	we	.	.	.	.	.
.	.	8d	sang	.	.	.	.	.
.	.	8g	in	.	.	.	.	.
.	.	4g	tune	.	.	G	.	.
=26	=26	=26	=26	=26	=26	=26	=26	=26
1GM	G:5	8d	Played	1r	.	.	60.382	.
.	.	8f	in-	.	.	.	.	.
.	.	8.f	-side	.	.	.	.	.
.	.	16d	the	.	.	.	.	.
.	.	8.d	moths	.	.	.	.	.
.	.	16G	of	.	.	.	.	.
.	.	8G	moon	.	.	G	.	.
.	.	8r	.	.	.	.	.	.
=27	=27	=27	=27	=27	=27	=27	=27	=27
1FM	F:maj	16c	Ne-	1r	.	.	62.758	.
.	.	16c	-ver	.	.	.	.	.
.	.	8c	think	.	.	.	.	.
.	.	8c	of	.	.	.	.	.
.	.	4d	ne-	.	.	(H	.	.
.	.	8c	-ver	.	.	h)	.	.
.	.	16r	.	.	.	.	.	.
.	.	8c	Let	.	.	.	.	.
.	.	[16c	this	.	.	.	.	.
=28	=28	=28	=28	=28	=28	=28	=28	=28
1FM	F:maj	8c]	_	1r	.	.	65.133	.
.	.	8a	spell	.	.	.	.	.
.	.	8g	last	.	.	.	.	.
.	.	8f	for-	.	.	.	.	.
.	.	16c	-e-	.	.	(H	.	.
.	.	16c	-ver	.	.	h)	.	.
.	.	8r	.	.	.	.	.	.
.	.	8r	.	.	.	.	.	.
.	.	8c	Well	.	.	.	.	.
=29	=29	=29	=29	=29	=29	=29	=29	=29
1GM	G:5	16d	sum-	1r	.	.	67.508	newline
.	.	8a	-mer	.	.	.	.	.
.	.	16a	lo-	.	.	.	.	.
.	.	8d	-ver	.	.	.	.	.
.	.	8d	passed	.	.	.	.	.
.	.	16d	to	.	.	.	.	.
.	.	8.g	fall	.	.	I	.	.
.	.	8r	.	.	.	.	.	.
.	.	[8d	Tried	.	.	.	.	.
=30	=30	=30	=30	=30	=30	=30	=30	=30
1GM	G:5	8d]	_	1r	.	.	69.889	.
.	.	8f	to	.	.	.	.	.
.	.	16f	re-	.	.	.	.	.
.	.	16d	-a-	.	.	.	.	.
.	.	4d	-lize	.	.	.	.	.
.	.	16G	it	.	.	.	.	.
.	.	8.G	all	.	.	I	.	.
.	.	8r	.	.	.	.	.	.
=31	=31	=31	=31	=31	=31	=31	=31	=31
1FM	F:maj	16c	Ma-	1r	.	.	72.269	.
.	.	16c	-ma	.	.	.	.	.
.	.	8c	says	.	.	.	.	.
.	.	8c	she's	.	.	.	.	.
.	.	4d	wor-	.	.	(J	.	.
.	.	8c	-ried	.	.	j)	.	.
.	.	8r	.	.	.	.	.	.
.	.	16c	Grow-	.	.	.	.	.
.	.	16c	-ing	.	.	.	.	.
=32	=32	=32	=32	=32	=32	=32	=32	=32
1FM	F:maj	8a	up	1r	.	.	74.649	.
.	.	8g	in	.	.	.	.	.
.	.	8f	a	.	.	.	.	.
.	.	4f	hur-	.	.	(J	.	.
.	.	8g	_	.	.	.	.	.
.	.	4a	-ry	.	.	j)	.	.
=33	=33	=33	=33	=33	=33	=33	=33	=33
*>Letter>A	*>Letter>A	*>Letter>A	*>Letter>A	*>Letter>A	*>Letter>A	*>Letter>A	*>Letter>A	*>Letter>A
*>Label>Trans	*>Label>Trans	*>Label>Trans	*>Label>Trans	*>Label>Trans	*>Label>Trans	*>Label>Trans	*>Label>Trans	*>Label>Trans
1GM	G:5	8r	.	1r	.	.	77.03	newline
.	.	16d	Yeah	.	.	.	.	.
.	.	8.c	_	.	.	.	.	.
.	.	8d	_	.	.	.	.	.
.	.	2r	.	.	.	.	.	.
=34	=34	=34	=34	=34	=34	=34	=34	=34
1GM	G:5	1r	.	1r	.	.	79.383	.
=35	=35	=35	=35	=35	=35	=35	=35	=35
*>Letter>C	*>Letter>C	*>Letter>C	*>Letter>C	*>Letter>C	*>Letter>C	*>Letter>C	*>Letter>C	*>Letter>C
*>Label>Chorus	*>Label>Chorus	*>Label>Chorus	*>Label>Chorus	*>Label>Chorus	*>Label>Chorus	*>Label>Chorus	*>Label>Chorus	*>Label>Chorus
2B-M	B-:maj	8cc	Come	1r	.	.	81.736	newline
.	.	8cc	on	.	.	.	.	.
.	.	8dd	_	.	.	.	.	.
.	.	4a	home	.	.	.	.	.
2FM	F:maj	.	.	.	.	.	82.921	.
.	.	16a	girl	.	.	.	.	.
.	.	16g	_	.	.	.	.	.
.	.	8f	_	.	.	.	.	.
.	.	16g	ma-	.	.	.	.	.
.	.	16g	-ma	.	.	.	.	.
=36	=36	=36	=36	=36	=36	=36	=36	=36
1GM	G:5	8r	.	1r	.	.	84.106	.
.	.	8d	cried	.	.	.	.	.
.	.	16d	on	.	.	.	.	.
.	.	16c	the	.	.	.	.	.
.	.	4.d	phone	.	.	K	.	.
.	.	8r	.	.	.	.	.	.
.	.	8d	To	.	.	.	.	.
=37	=37	=37	=37	=37	=37	=37	=37	=37
2B-M	B-:maj	8cc	soon	1r	.	.	86.476	.
.	.	16cc	to	.	.	.	.	.
.	.	8.cc	lose	.	.	.	.	.
.	.	8dd	my	.	.	.	.	.
2FM	F:maj	8a	ba-	.	.	.	87.661	.
.	.	8g	-by	.	.	.	.	.
.	.	8f	and	.	.	.	.	.
.	.	8g	my	.	.	.	.	.
=38	=38	=38	=38	=38	=38	=38	=38	=38
1GM	G:5	8.d	girl	1r	.	.	88.846	.
.	.	16d	should	.	.	.	.	.
.	.	16d	be	.	.	.	.	.
.	.	16c	at	.	.	.	.	.
.	.	16d	home	.	.	K	.	.
.	.	8.f	_	.	.	.	.	.
.	.	8r	.	.	.	.	.	.
.	.	8r	.	.	.	.	.	.
.	.	8c	But	.	.	.	.	.
=39	=39	=39	=39	=39	=39	=39	=39	=39
1FM	F:maj	16cc	try	1r	.	.	91.216	newline
.	.	8b-	to	.	.	.	.	.
.	.	16a	un-	.	.	.	.	.
.	.	8g	-der-	.	.	.	.	.
.	.	8a	-stand	.	.	.	.	.
.	.	8a	_	.	.	.	.	.
.	.	8r	.	.	.	.	.	.
.	.	8r	.	.	.	.	.	.
.	.	[8dd	try	.	.	.	.	.
=40	=40	=40	=40	=40	=40	=40	=40	=40
1GM	G:maj	8dd]	_	1r	.	.	93.54	.
.	.	16cc	to	.	.	.	.	.
.	.	16b	un-	.	.	.	.	.
.	.	8a	-der-	.	.	.	.	.
.	.	16b	-stand	.	.	.	.	.
.	.	16a	_	.	.	.	.	.
.	.	4.g	_	.	.	.	.	.
.	.	8r	.	.	.	.	.	.
=41	=41	=41	=41	=41	=41	=41	=41	=41
1B-M	B-:maj	4cc	Try	1r	.	.	95.864	.
.	.	16cc	try	.	.	.	.	.
.	.	8.dd	_	.	.	.	.	.
.	.	32a	try	.	.	.	.	.
.	.	32g	_	.	.	.	.	.
.	.	8f	_	.	.	.	.	.
.	.	16f	to	.	.	.	.	.
.	.	8g	un-	.	.	.	.	.
.	.	8g	-der-	.	.	.	.	.
=42	=42	=42	=42	=42	=42	=42	=42	=42
1CM	C:maj	2g	-stand	1r	.	F	98.187	.
.	.	8r	.	.	.	.	.	.
.	.	16c	He's	.	.	.	.	.
.	.	16c	a	.	.	.	.	.
.	.	8d	ma-	.	.	.	.	.
.	.	8c	-gic	.	.	.	.	.
=43	=43	=43	=43	=43	=43	=43	=43	=43
*>Letter>A	*>Letter>A	*>Letter>A	*>Letter>A	*>Letter>A	*>Letter>A	*>Letter>A	*>Letter>A	*>Letter>A
*>Label>Interlude	*>Label>Interlude	*>Label>Interlude	*>Label>Interlude	*>Label>Interlude	*>Label>Interlude	*>Label>Interlude	*>Label>Interlude	*>Label>Interlude
1GM	G:5	4B-	man	1r	.	F	100.511	newline
.	.	8G	ma-	.	.	.	.	.
.	.	8G	-ma	.	.	.	.	.
.	.	4r	.	.	.	.	.	.
.	.	[4g	Ah	.	.	.	.	.
=44	=44	=44	=44	=44	=44	=44	=44	=44
1GM	G:5	2g]	_	1r	.	.	102.854	.
.	.	16r	.	.	.	.	.	.
.	.	16c	He's	.	.	.	.	.
.	.	16c	a	.	.	.	.	.
.	.	8.d	ma-	.	.	.	.	.
.	.	8c	-gic	.	.	.	.	.
=45	=45	=45	=45	=45	=45	=45	=45	=45
1GM	G:5	16B-	man	1r	.	F	105.197	.
.	.	8.G	_	.	.	.	.	.
.	.	4r	.	.	.	.	.	.
.	.	2r	.	.	.	.	.	.
=46	=46	=46	=46	=46	=46	=46	=46	=46
1GM	G:5	1r	.	1r	.	.	107.539	.
=47	=47	=47	=47	=47	=47	=47	=47	=47
1GM	G:5	1r	.	1r	.	.	109.882	newline
=48	=48	=48	=48	=48	=48	=48	=48	=48
1GM	G:5	1r	.	1r	.	.	112.241	.
=49	=49	=49	=49	=49	=49	=49	=49	=49
1GM	G:5	1r	.	1r	.	.	114.601	.
=50	=50	=50	=50	=50	=50	=50	=50	=50
1GM	G:5	1r	.	1r	.	.	116.961	.
=51	=51	=51	=51	=51	=51	=51	=51	=51
*>Letter>C	*>Letter>C	*>Letter>C	*>Letter>C	*>Letter>C	*>Letter>C	*>Letter>C	*>Letter>C	*>Letter>C
*>Label>Chorus	*>Label>Chorus	*>Label>Chorus	*>Label>Chorus	*>Label>Chorus	*>Label>Chorus	*>Label>Chorus	*>Label>Chorus	*>Label>Chorus
2B-M	B-:maj	8cc	Come	1r	.	.	119.32	newline
.	.	8cc	on	.	.	.	.	.
.	.	8dd	_	.	.	.	.	.
.	.	4a	home	.	.	.	.	.
2FM	F:maj	.	.	.	.	.	120.483	.
.	.	16a	girl	.	.	.	.	.
.	.	16g	_	.	.	.	.	.
.	.	8f	_	.	.	.	.	.
.	.	8g	he	.	.	.	.	.
=52	=52	=52	=52	=52	=52	=52	=52	=52
1GM	G:5	8d	said	1r	.	.	121.646	.
.	.	16d	with	.	.	.	.	.
.	.	8.c	a	.	.	.	.	.
.	.	4.d	smile	.	.	E	.	.
.	.	8r	.	.	.	.	.	.
.	.	8d	I	.	.	.	.	.
=53	=53	=53	=53	=53	=53	=53	=53	=53
2B-M	B-:maj	8cc	cast	1r	.	.	123.972	.
.	.	8cc	my	.	.	.	.	.
.	.	16cc	spell	.	.	.	.	.
.	.	16dd	of	.	.	.	.	.
.	.	4a	love	.	.	.	.	.
2FM	F:maj	.	.	.	.	.	125.135	.
.	.	8g	on	.	.	.	.	.
.	.	8f	you	.	.	.	.	.
.	.	8g	a	.	.	.	.	.
=54	=54	=54	=54	=54	=54	=54	=54	=54
1GM	G:5	16d	wo-	1r	.	.	126.298	.
.	.	8.d	-man	.	.	.	.	.
.	.	16d	from	.	.	.	.	.
.	.	8c	a	.	.	.	.	.
.	.	16d	child	.	.	E	.	.
.	.	8f	_	.	.	.	.	.
.	.	8r	.	.	.	.	.	.
.	.	8r	.	.	.	.	.	.
.	.	8c	But	.	.	.	.	.
=55	=55	=55	=55	=55	=55	=55	=55	=55
1FM	F:maj	16cc	try	1r	.	.	128.624	newline
.	.	8b-	to	.	.	.	.	.
.	.	16a	un-	.	.	.	.	.
.	.	8g	-der-	.	.	.	.	.
.	.	16a	-stand	.	.	.	.	.
.	.	16g	_	.	.	.	.	.
.	.	4f	_	.	.	.	.	.
.	.	8r	.	.	.	.	.	.
.	.	[8dd	try	.	.	.	.	.
=56	=56	=56	=56	=56	=56	=56	=56	=56
1GM	G:maj	8dd]	_	1r	.	.	130.948	.
.	.	16cc	to	.	.	.	.	.
.	.	16b	un-	.	.	.	.	.
.	.	8a	-der-	.	.	.	.	.
.	.	16b	-stand	.	.	.	.	.
.	.	16a	_	.	.	.	.	.
.	.	4g	_	.	.	.	.	.
.	.	4r	.	.	.	.	.	.
=57	=57	=57	=57	=57	=57	=57	=57	=57
1E-M	E-:maj	2.b	Oh	1r	.	.	133.271	.
.	.	8r	.	.	.	.	.	.
.	.	[8dd	Oh	.	.	.	.	.
=58	=58	=58	=58	=58	=58	=58	=58	=58
1Em	E:min	4.dd]	_	1r	.	.	135.595	.
.	.	8b	oh	.	.	.	.	.
.	.	8a	_	.	.	.	.	.
.	.	4g	_	.	.	.	.	.
.	.	8r	.	.	.	.	.	.
=59	=59	=59	=59	=59	=59	=59	=59	=59
1FM	F:maj	4.cc	Try	1r	.	.	137.918	newline
.	.	8dd	_	.	.	.	.	.
.	.	16a	_	.	.	.	.	.
.	.	16g	_	.	.	.	.	.
.	.	4f	_	.	.	.	.	.
.	.	[8dd	try	.	.	.	.	.
=60	=60	=60	=60	=60	=60	=60	=60	=60
1GM	G:maj	16dd]	_	1r	.	.	140.243	.
.	.	16dd	_	.	.	.	.	.
.	.	16cc	to	.	.	.	.	.
.	.	16b	un-	.	.	.	.	.
.	.	8a	-der-	.	.	.	.	.
.	.	16b	-stand	.	.	.	.	.
.	.	16a	_	.	.	.	.	.
.	.	4g	_	.	.	.	.	.
.	.	4r	.	.	.	.	.	.
=61	=61	=61	=61	=61	=61	=61	=61	=61
1B-M	B-:maj	4cc	Try	1r	.	.	142.567	.
.	.	16cc	try	.	.	.	.	.
.	.	8.dd	_	.	.	.	.	.
.	.	32a	try	.	.	.	.	.
.	.	32g	_	.	.	.	.	.
.	.	8f	_	.	.	.	.	.
.	.	16f	to	.	.	.	.	.
.	.	8g	un-	.	.	.	.	.
.	.	8g	-der-	.	.	.	.	.
=62	=62	=62	=62	=62	=62	=62	=62	=62
1CM	C:maj	2g	-stand	1r	.	F	144.891	.
.	.	8r	.	.	.	.	.	.
.	.	16g	He's	.	.	.	.	.
.	.	16g	a	.	.	.	.	.
.	.	[4b-	ma-	.	.	.	.	.
=63	=63	=63	=63	=63	=63	=63	=63	=63
*>Letter>D	*>Letter>D	*>Letter>D	*>Letter>D	*>Letter>D	*>Letter>D	*>Letter>D	*>Letter>D	*>Letter>D
*>Label>Solo	*>Label>Solo	*>Label>Solo	*>Label>Solo	*>Label>Solo	*>Label>Solo	*>Label>Solo	*>Label>Solo	*>Label>Solo
1GM	G:5	4.b-]	_	1r	.	.	147.215	newline
.	.	8cc	-gic	.	.	.	.	.
.	.	16g	man	.	.	F	.	.
.	.	[4..f	_	.	.	.	.	.
=64	=64	=64	=64	=64	=64	=64	=64	=64
2GM	G:5	2f]	_	[1g	Ooh	.	149.48	.
2FM	F:5	16g	Oh	.	.	.	150.612	.
.	.	16f	_	.	.	.	.	.
.	.	8d-	_	.	.	.	.	.
.	.	4c	_	.	.	.	.	.
=65	=65	=65	=65	=65	=65	=65	=65	=65
1GM	G:5	16B-	yeah	1g_	_	.	151.744	.
.	.	8.G	_	.	.	.	.	.
.	.	4r	.	.	.	.	.	.
.	.	2r	.	.	.	.	.	.
=66	=66	=66	=66	=66	=66	=66	=66	=66
2GM	G:5	1r	.	4.g]	_	.	154.009	.
.	.	.	.	8g	you	.	.	.
2FM	F:5	.	.	8g	got	.	155.141	.
.	.	.	.	16d-	the	.	.	.
.	.	.	.	8.d-	ma-	.	.	.
.	.	.	.	8c	-gic	.	.	.
=67	=67	=67	=67	=67	=67	=67	=67	=67
1GM	G:5	1r	.	16B-	hands	.	156.273	newline
.	.	.	.	4..G	_	.	.	.
.	.	.	.	2r	.	.	.	.
=68	=68	=68	=68	=68	=68	=68	=68	=68
2GM	G:5	1r	.	1r	.	.	158.533	.
2FM	F:5	.	.	.	.	.	159.663	.
=69	=69	=69	=69	=69	=69	=69	=69	=69
1GM	G:5	1r	.	1r	.	.	160.793	.
=70	=70	=70	=70	=70	=70	=70	=70	=70
2GM	G:5	1r	.	1r	.	.	163.053	.
2FM	F:5	.	.	.	.	.	164.183	.
=71	=71	=71	=71	=71	=71	=71	=71	=71
1GM	G:5	1r	.	1r	.	.	165.313	newline
=72	=72	=72	=72	=72	=72	=72	=72	=72
2GM	G:5	1r	.	1r	.	.	167.581	.
2FM	F:5	.	.	.	.	.	168.715	.
=73	=73	=73	=73	=73	=73	=73	=73	=73
1GM	G:5	1r	.	1r	.	.	169.849	.
=74	=74	=74	=74	=74	=74	=74	=74	=74
2GM	G:5	1r	.	1r	.	.	172.118	.
2FM	F:5	.	.	.	.	.	173.252	.
=75	=75	=75	=75	=75	=75	=75	=75	=75
1GM	G:5	1r	.	1r	.	.	174.386	newline
=76	=76	=76	=76	=76	=76	=76	=76	=76
2GM	G:5	1r	.	1r	.	.	176.661	.
2FM	F:5	.	.	.	.	.	177.799	.
=77	=77	=77	=77	=77	=77	=77	=77	=77
1GM	G:5	1r	.	1r	.	.	178.937	.
=78	=78	=78	=78	=78	=78	=78	=78	=78
2GM	G:5	1r	.	1r	.	.	181.213	.
2FM	F:5	.	.	.	.	.	182.35	.
=79	=79	=79	=79	=79	=79	=79	=79	=79
1GM	G:5	1r	.	1r	.	.	183.488	newline
=80	=80	=80	=80	=80	=80	=80	=80	=80
2GM	G:5	1r	.	1r	.	.	185.735	.
2FM	F:5	.	.	.	.	.	186.858	.
=81	=81	=81	=81	=81	=81	=81	=81	=81
*M2/4	*M2/4	*M2/4	*	*M2/4	*	*	*M2/4	*M2/4
2GM	G:5	2r	.	2r	.	.	187.981	.
=82	=82	=82	=82	=82	=82	=82	=82	=82
*>Letter>D	*>Letter>D	*>Letter>D	*>Letter>D	*>Letter>D	*>Letter>D	*>Letter>D	*>Letter>D	*>Letter>D
*>Label>Solo	*>Label>Solo	*>Label>Solo	*>Label>Solo	*>Label>Solo	*>Label>Solo	*>Label>Solo	*>Label>Solo	*>Label>Solo
*M4/4	*M4/4	*	*	*	*	*	*M4/4	*M4/4
1GM	G:5	1r	.	1r	.	.	189.105	newline
=83	=83	=83	=83	=83	=83	=83	=83	=83
2GM	G:5	1r	.	1r	.	.	191.364	.
2FM	F:5	.	.	.	.	.	192.494	.
=84	=84	=84	=84	=84	=84	=84	=84	=84
1GM	G:5	1r	.	1r	.	.	193.624	.
=85	=85	=85	=85	=85	=85	=85	=85	=85
2GM	G:5	1r	.	1r	.	.	195.884	.
2FM	F:5	.	.	.	.	.	197.013	.
=86	=86	=86	=86	=86	=86	=86	=86	=86
1GM	G:5	1r	.	1r	.	.	198.143	newline
=87	=87	=87	=87	=87	=87	=87	=87	=87
2GM	G:5	1r	.	1r	.	.	200.393	.
2FM	F:5	.	.	.	.	.	201.518	.
=88	=88	=88	=88	=88	=88	=88	=88	=88
1GM	G:5	1r	.	1r	.	.	202.644	.
=89	=89	=89	=89	=89	=89	=89	=89	=89
2GM	G:5	1r	.	1r	.	.	204.894	.
2FM	F:5	.	.	.	.	.	206.019	.
=90	=90	=90	=90	=90	=90	=90	=90	=90
1GM	G:5	1r	.	1r	.	.	207.144	newline
=91	=91	=91	=91	=91	=91	=91	=91	=91
2GM	G:5	1r	.	1r	.	.	.	.
2FM	F:5	.	.	.	.	.	.	.
=92	=92	=92	=92	=92	=92	=92	=92	=92
1GM	G:5	1r	.	1r	.	.	.	.
=93	=93	=93	=93	=93	=93	=93	=93	=93
2GM	G:5	1r	.	1r	.	.	.	.
2FM	F:5	.	.	.	.	.	.	.
=94	=94	=94	=94	=94	=94	=94	=94	=94
1GM	G:5	1r	.	1r	.	.	216.112	newline
=95	=95	=95	=95	=95	=95	=95	=95	=95
2GM	G:5	1r	.	1r	.	.	.	.
2FM	F:5	.	.	.	.	.	.	.
=96	=96	=96	=96	=96	=96	=96	=96	=96
1GM	G:5	1r	.	1r	.	.	.	.
=97	=97	=97	=97	=97	=97	=97	=97	=97
1N	N	1r	.	1r	.	.	.	.
=98	=98	=98	=98	=98	=98	=98	=98	=98
*M2/4	*M2/4	*M2/4	*	*M2/4	*	*	*M2/4	*M2/4
4FM	F:5	2r	.	2r	.	.	225.153	newline
4F#m	F#:5	.	.	.	.	.	.	.
=99	=99	=99	=99	=99	=99	=99	=99	=99
*M4/4	*M4/4	*M4/4	*	*M4/4	*	*	*M4/4	*M4/4
1GM	G:5	1r	.	1r	.	.	.	.
=100	=100	=100	=100	=100	=100	=100	=100	=100
1GM	G:5	1r	.	1r	.	.	.	.
=101	=101	=101	=101	=101	=101	=101	=101	=101
*>Letter>D	*>Letter>D	*>Letter>D	*>Letter>D	*>Letter>D	*>Letter>D	*>Letter>D	*>Letter>D	*>Letter>D
*>Label>Solo	*>Label>Solo	*>Label>Solo	*>Label>Solo	*>Label>Solo	*>Label>Solo	*>Label>Solo	*>Label>Solo	*>Label>Solo
1GM	G:5	1r	.	1r	.	.	230.802	newline
=102	=102	=102	=102	=102	=102	=102	=102	=102
2N	N	1r	.	1r	.	.	.	.
4FM	F:5	.	.	.	.	.	.	.
4F#m	F#:5	.	.	.	.	.	.	.
=103	=103	=103	=103	=103	=103	=103	=103	=103
1GM	G:5	1r	.	1r	.	.	.	.
=104	=104	=104	=104	=104	=104	=104	=104	=104
1N	N	1r	.	1r	.	.	.	.
=105	=105	=105	=105	=105	=105	=105	=105	=105
1GM	G:5	1r	.	1r	.	.	239.88	newline
=106	=106	=106	=106	=106	=106	=106	=106	=106
2N	N	1r	.	1r	.	.	.	.
4FM	F:5	.	.	.	.	.	.	.
4F#m	F#:5	.	.	.	.	.	.	.
=107	=107	=107	=107	=107	=107	=107	=107	=107
1GM	G:5	1r	.	1r	.	.	.	.
=108	=108	=108	=108	=108	=108	=108	=108	=108
1N	N	1r	.	1r	.	.	.	.
=109	=109	=109	=109	=109	=109	=109	=109	=109
1GM	G:5	[1a	Ah	1r	.	.	248.946	newline
=110	=110	=110	=110	=110	=110	=110	=110	=110
2GM	G:5	2a]	_	1r	.	.	.	.
2FM	F:5	8a	Ah	.	.	.	.	.
.	.	8g	_	.	.	.	.	.
.	.	8f	_	.	.	.	.	.
.	.	[8g	_	.	.	.	.	.
=111	=111	=111	=111	=111	=111	=111	=111	=111
1GM	G:5	4.g]	_	1r	.	.	.	.
.	.	[8f	_	.	.	.	.	.
.	.	2f]	_	.	.	.	.	.
=112	=112	=112	=112	=112	=112	=112	=112	=112
2GM	G:5	1r	.	1r	.	.	.	.
2FM	F:5	.	.	.	.	.	.	.
=113	=113	=113	=113	=113	=113	=113	=113	=113
1GM	G:5	[1a	Ah	1r	.	.	257.842	newline
=114	=114	=114	=114	=114	=114	=114	=114	=114
2GM	G:5	2a]	_	1r	.	.	.	.
2FM	F:5	8a	Ah	.	.	.	.	.
.	.	8g	_	.	.	.	.	.
.	.	8f	_	.	.	.	.	.
.	.	[8g	_	.	.	.	.	.
=115	=115	=115	=115	=115	=115	=115	=115	=115
1GM	G:5	4.g]	_	1r	.	.	.	.
.	.	[8f	_	.	.	.	.	.
.	.	2f]	_	.	.	.	.	.
=116	=116	=116	=116	=116	=116	=116	=116	=116
2GM	G:5	1r	.	1r	.	.	.	.
2FM	F:5	.	.	.	.	.	.	.
=117	=117	=117	=117	=117	=117	=117	=117	=117
1GM	G:5	[1a	Ah	1r	.	.	266.768	newline
=118	=118	=118	=118	=118	=118	=118	=118	=118
2GM	G:5	2a]	_	1r	.	.	.	.
2FM	F:5	8a	Ah	.	.	.	.	.
.	.	8g	_	.	.	.	.	.
.	.	8f	_	.	.	.	.	.
.	.	[8g	_	.	.	.	.	.
=119	=119	=119	=119	=119	=119	=119	=119	=119
1GM	G:5	4.g]	_	1r	.	.	.	.
.	.	[8f	_	.	.	.	.	.
.	.	2f]	_	.	.	.	.	.
=120	=120	=120	=120	=120	=120	=120	=120	=120
2GM	G:5	1r	.	1r	.	.	.	.
2FM	F:5	.	.	.	.	.	.	.
=121	=121	=121	=121	=121	=121	=121	=121	=121
1GM	G:5	[1a	Ah	1r	.	.	275.705	newline
=122	=122	=122	=122	=122	=122	=122	=122	=122
2GM	G:5	2a]	_	1r	.	.	.	.
2FM	F:5	8a	Ah	.	.	.	.	.
.	.	8g	_	.	.	.	.	.
.	.	8f	_	.	.	.	.	.
.	.	[8g	_	.	.	.	.	.
=123	=123	=123	=123	=123	=123	=123	=123	=123
1GM	G:5	4.g]	_	1r	.	.	.	.
.	.	[8f	_	.	.	.	.	.
.	.	2f]	_	.	.	.	.	.
=124	=124	=124	=124	=124	=124	=124	=124	=124
2GM	G:5	1r	.	1r	.	.	.	.
2FM	F:5	.	.	.	.	.	.	.
=125	=125	=125	=125	=125	=125	=125	=125	=125
1GM	G:5	1r	.	1r	.	.	284.684	newline
=126	=126	=126	=126	=126	=126	=126	=126	=126
2GM	G:5	1r	.	1r	.	.	.	.
2FM	F:5	.	.	.	.	.	.	.
=127	=127	=127	=127	=127	=127	=127	=127	=127
*M2/4	*M2/4	*M2/4	*	*M2/4	*	*	*M2/4	*M2/4
2GM	G:5	2r	.	2r	.	.	.	.
=128	=128	=128	=128	=128	=128	=128	=128	=128
*M4/4	*M4/4	*M4/4	*	*M4/4	*	*	*M4/4	*M4/4
1FM	F:maj	1r	.	1r	.	.	290.274	newline
=129	=129	=129	=129	=129	=129	=129	=129	=129
1FM	F:maj	1r	.	1r	.	.	.	.
=130	=130	=130	=130	=130	=130	=130	=130	=130
1FM	F:maj	1r	.	1r	.	.	.	.
=131	=131	=131	=131	=131	=131	=131	=131	=131
1FM	F:maj	1r	.	1r	.	.	.	.
=132	=132	=132	=132	=132	=132	=132	=132	=132
*>Letter>C2	*>Letter>C2	*>Letter>C2	*>Letter>C2	*>Letter>C2	*>Letter>C2	*>Letter>C2	*>Letter>C2	*>Letter>C2
*>Label>Chorus	*>Label>Chorus	*>Label>Chorus	*>Label>Chorus	*>Label>Chorus	*>Label>Chorus	*>Label>Chorus	*>Label>Chorus	*>Label>Chorus
2B-M	B-:maj	8cc	Come	1r	.	.	299.449	newline
.	.	8cc	on	.	.	.	.	.
.	.	8dd	_	.	.	.	.	.
.	.	4a	home	.	.	.	.	.
2FM	F:maj	.	.	.	.	.	.	.
.	.	16a	girl	.	.	.	.	.
.	.	16g	_	.	.	.	.	.
.	.	8f	_	.	.	.	.	.
.	.	8g	he	.	.	.	.	.
=133	=133	=133	=133	=133	=133	=133	=133	=133
1GM	G:5	8d	said	1r	.	.	.	.
.	.	16d	with	.	.	.	.	.
.	.	8.c	a	.	.	.	.	.
.	.	4.d	smile	.	.	E	.	.
.	.	4r	.	.	.	.	.	.
=134	=134	=134	=134	=134	=134	=134	=134	=134
2B-M	B-:maj	16cc	You	1r	.	.	.	.
.	.	8.cc	don't	.	.	.	.	.
.	.	8cc	have	.	.	.	.	.
.	.	16dd	to	.	.	.	.	.
.	.	8.a	love	.	.	.	.	.
2FM	F:maj	.	.	.	.	.	.	.
.	.	8g	me	.	.	.	.	.
.	.	8f	yet	.	.	.	.	.
.	.	[8g	let's	.	.	.	.	.
=135	=135	=135	=135	=135	=135	=135	=135	=135
1GM	G:5	16g]	_	1r	.	.	.	.
.	.	16c	get	.	.	.	.	.
.	.	16d	high	.	.	.	.	.
.	.	8.c	a	.	.	.	.	.
.	.	16d	while	.	.	E	.	.
.	.	8.f	_	.	.	.	.	.
.	.	8r	.	.	.	.	.	.
.	.	8r	.	.	.	.	.	.
.	.	8c	But	.	.	.	.	.
=136	=136	=136	=136	=136	=136	=136	=136	=136
1FM	F:maj	16cc	try	1r	.	.	308.67	newline
.	.	8b-	to	.	.	.	.	.
.	.	16a	un-	.	.	.	.	.
.	.	8g	-der-	.	.	.	.	.
.	.	16a	-stand	.	.	.	.	.
.	.	16g	_	.	.	.	.	.
.	.	4f	_	.	.	.	.	.
.	.	8r	.	.	.	.	.	.
.	.	[8dd	try	.	.	.	.	.
=137	=137	=137	=137	=137	=137	=137	=137	=137
1GM	G:maj	8dd]	_	1r	.	.	.	.
.	.	16cc	to	.	.	.	.	.
.	.	16b	un-	.	.	.	.	.
.	.	8a	-der-	.	.	.	.	.
.	.	16b	-stand	.	.	.	.	.
.	.	16a	_	.	.	.	.	.
.	.	4.g	_	.	.	.	.	.
.	.	8r	.	.	.	.	.	.
=138	=138	=138	=138	=138	=138	=138	=138	=138
1B-M	B-:maj	4cc	Try	1r	.	.	.	.
.	.	16cc	try	.	.	.	.	.
.	.	8.dd	_	.	.	.	.	.
.	.	32a	try	.	.	.	.	.
.	.	32g	_	.	.	.	.	.
.	.	8f	_	.	.	.	.	.
.	.	16f	to	.	.	.	.	.
.	.	8g	un-	.	.	.	.	.
.	.	8g	-der-	.	.	.	.	.
=139	=139	=139	=139	=139	=139	=139	=139	=139
1CM	C:maj	2g	-stand	1r	.	F	.	.
.	.	8r	.	.	.	.	.	.
.	.	16g	He's	.	.	.	.	.
.	.	16g	a	.	.	.	.	.
.	.	8g	ma-	.	.	.	.	.
.	.	8g	-gic	.	.	.	.	.
=140	=140	=140	=140	=140	=140	=140	=140	=140
2B-M	B-:maj	4.b-	man	1r	.	F	317.551	newline
.	.	4.cc	_	.	.	.	.	.
2FM	F:maj	.	.	.	.	.	.	.
.	.	4r	.	.	.	.	.	.
=141	=141	=141	=141	=141	=141	=141	=141	=141
2B-M	B-:maj	8dd	Oh	1r	.	.	.	.
.	.	8cc	_	.	.	.	.	.
.	.	8b-	_	.	.	.	.	.
.	.	16g	_	.	.	.	.	.
.	.	[16f	_	.	.	.	.	.
2FM	F:maj	4f]	_	.	.	.	.	.
.	.	4r	.	.	.	.	.	.
=142	=142	=142	=142	=142	=142	=142	=142	=142
2B-M	B-:maj	4.b-	Oh	1r	.	.	.	.
.	.	[4.cc	_	.	.	.	.	.
2FM	F:maj	.	.	.	.	.	.	.
.	.	4cc]	_	.	.	.	.	.
=143	=143	=143	=143	=143	=143	=143	=143	=143
1Gm	G:min	1r	.	1r	.	.	.	.
1r;	1r	r;	.	r;	.	.	327.053	.
1r;	1r	r;	.	r;	.	.	328.542	.
*-	*-	*-	*-	*-	*-	*-	*-	*-
!!!BillboardChartDate: 1976/10/30, 1976/08/07
!!!BillboardPeak: 9, 9
!!!BillboardWeeksOnChart: 23, 23
!!!COC: Heart
!!!EMD: Added measure at the end. -Nat
!!!ENC: Nathaniel Condit-Schultz
!!!EST: Awating manual error checking and editing.
!!!OTL: Magic Man
!!!RDF**chordsym: original McGill chord annotation + (implied pitch class set, with bass pitch in first position)
!!!RDF**harmony: **recip + pitch class of root + harmonic quality
!!!RDF**leadinstrument: original McGill primary instrumentation annotation
!!!RDF**phrase: newline = linebreak in original McGill transcription
!!!RDF**timestamp: McGill audio timestamp in seconds
!!!RDT: 2017/01/12/
!!!SampleActualRank: 10, 73
!!!SampleID#: 215, 800
!!!SampleTargetRank: 12, 71
!!!MBID: f3522cc5-7a41-4d3c-8d26-f386e3ed7282
